assets/img/growth.svg

<svg xmlns="http://www.w3.org/2000/svg" height="512pt" version="1.1" viewBox="0 0 512.00023 512" width="512pt">
<g id="surface1">
<path d="M 81.941406 401.667969 L 55.164062 401.667969 C 24.746094 401.667969 0 426.414062 0 456.832031 L 0 497 C 0 505.285156 6.714844 512 15 512 L 122.109375 512 C 130.394531 512 137.109375 505.285156 137.109375 497 L 137.109375 456.832031 C 137.109375 426.414062 112.363281 401.667969 81.941406 401.667969 Z M 81.941406 401.667969 " style=" stroke:none;fill-rule:nonzero;fill:rgb(100%,42.745098%,8.235294%);fill-opacity:1;" />
<path d="M 189.054688 321.332031 L 162.277344 321.332031 C 131.859375 321.332031 107.109375 346.082031 107.109375 376.5 L 107.109375 497 C 107.109375 505.285156 113.828125 512 122.109375 512 L 229.222656 512 C 237.503906 512 244.222656 505.285156 244.222656 497 L 244.222656 376.5 C 244.222656 346.082031 219.472656 321.332031 189.054688 321.332031 Z M 189.054688 321.332031 " style=" stroke:none;fill-rule:nonzero;fill:rgb(100%,81.960784%,16.862745%);fill-opacity:1;" />
<path d="M 296.164062 241 L 269.386719 241 C 238.96875 241 214.222656 265.75 214.222656 296.167969 L 214.222656 497 C 214.222656 505.285156 220.9375 512 229.222656 512 L 336.328125 512 C 344.613281 512 351.328125 505.285156 351.328125 497 L 351.328125 296.167969 C 351.328125 265.75 326.582031 241 296.164062 241 Z M 296.164062 241 " style=" stroke:none;fill-rule:nonzero;fill:rgb(50.196078%,82.745098%,59.607843%);fill-opacity:1;" />
<path d="M 509.054688 150.671875 L 401.9375 6.070312 C 399.109375 2.253906 394.640625 0 389.886719 0 C 385.132812 0 380.660156 2.253906 377.832031 6.070312 L 270.722656 150.671875 C 267.351562 155.222656 266.832031 161.289062 269.378906 166.347656 C 271.929688 171.40625 277.109375 174.601562 282.773438 174.601562 L 321.328125 174.601562 L 321.328125 497 C 321.328125 505.285156 328.046875 512 336.328125 512 L 443.441406 512 C 451.726562 512 458.441406 505.285156 458.441406 497 L 458.441406 174.601562 L 497 174.601562 C 502.664062 174.601562 507.847656 171.40625 510.398438 166.347656 C 512.945312 161.289062 512.425781 155.222656 509.054688 150.671875 Z M 509.054688 150.671875 " style=" stroke:none;fill-rule:nonzero;fill:rgb(0%,70.588235%,29.411765%);fill-opacity:1;" />
</g>
</svg>

<?xml version="1.0" encoding="utf-8"?>
<!-- Generator: Adobe Illustrator 23.0.3, SVG Export Plug-In . SVG Version: 6.00 Build 0)  -->
<svg version="1.1" id="Layer_1" xmlns="http://www.w3.org/2000/svg" xmlns:xlink="http://www.w3.org/1999/xlink" x="0px" y="0px"
	 viewBox="0 0 512 512" style="enable-background:new 0 0 512 512;" xml:space="preserve">
<style type="text/css">
	.st0{fill:#FF6D15;}
	.st1{fill:#FFD12B;}
	.st2{fill:#80D398;}
	.st3{fill:#00B44B;}
</style>
<g id="surface1">
	<path class="st0" d="M81.9,401.7H55.2C24.7,401.7,0,426.4,0,456.8V497c0,8.3,6.7,15,15,15h107.1c8.3,0,15-6.7,15-15v-40.2
		C137.1,426.4,112.4,401.7,81.9,401.7z"/>
	<path class="st1" d="M189.1,321.3h-26.8c-30.4,0-55.2,24.8-55.2,55.2V497c0,8.3,6.7,15,15,15h107.1c8.3,0,15-6.7,15-15V376.5
		C244.2,346.1,219.5,321.3,189.1,321.3z"/>
	<path class="st2" d="M296.2,241h-26.8c-30.4,0-55.2,24.8-55.2,55.2V497c0,8.3,6.7,15,15,15h107.1c8.3,0,15-6.7,15-15V296.2
		C351.3,265.8,326.6,241,296.2,241z"/>
	<path class="st3" d="M509.1,150.7L401.9,6.1c-2.8-3.8-7.3-6.1-12.1-6.1s-9.2,2.3-12.1,6.1L270.7,150.7c-3.4,4.6-3.9,10.6-1.3,15.7
		c2.6,5.1,7.7,8.3,13.4,8.3h38.6V497c0,8.3,6.7,15,15,15h107.1c8.3,0,15-6.7,15-15V174.6H497c5.7,0,10.8-3.2,13.4-8.3
		C512.9,161.3,512.4,155.2,509.1,150.7z"/>
</g>
</svg>
